!!!!SEGMENT: 067-1-Sam-002.krn
!!!COM: Chopin, Fryderyk
!!!OTL: Mazurka No. 2
!!!OPS: Op. 67
!!!PTL: ŒUVRES POSTHUMES | POUR LE | PIANO | DE | FRÉD. CHOPIN
!!!PPR: Schlesinger
!!!PPP: Berlin
!!!NIFC-rismID: BRAK
!!!NIFC-shelfmark: BRAK
!!!OMD: Cantabile.
!!!OMD: M. M. [quarter] = 144.
**kern	**kern	**fing	**dynam
*part1	*part1	*	*part1
*staff2	*staff1	*	*
*clefF4	*clefG2	*	*
*k[b-e-]	*k[b-e-]	*	*
*M3/4	*M3/4	*	*
*>[A,B,B,C]	*>[A,B,B,C]	*>[A,B,B,C]	*>[A,B,B,C]
*	*I"N|o. 2.	*	*
*>A	*>A	*>A	*>A
4r	(>4d	.	.
=1	=1	=1	=1
*ped	*	*	*
4DD	8ddL)	.	p
.	8qff/	.	.
.	8ee-J	.	.
4d 4c 4F#X	4dd	.	.
*Xped	*	*	*
4d 4c 4F#	4a/	.	.
=2	=2	=2	=2
*ped	*	*	*
4GG	4.b-	.	.
4d 4B- 4G	.	.	.
*Xped	*	*	*
.	(>8gL	.	<
4e- 4B- 4G	8dd	.	.
.	8ee-J)	.	[
=3	=3	=3	=3
*ped	*	*	*
4AA	8ffL	.	.
.	8qaa/	.	.
.	8ggJ	.	.
4e- 4c 4F	4ff	.	.
*Xped	*	*	*
4e- 4A 4F	4cc	.	.
=4	=4	=4	=4
*ped	*	*	*
4BB-	4dd	.	.
4d 4B- 4F	4r	.	.
4d 4B- 4F	8ddL	.	.
*Xped	*	*	*
.	8ddJ	.	.
=5	=5	=5	=5
4r	8ddL	.	.
.	8qff/	.	.
.	8ee-J	.	.
*ped	*	*	*
4c 4F#X 4D	4dd	.	.
4c 4F# 4D	4a/	.	.
*Xped	*	*	*
.	.	.	.
!!LO:LB:g=original
=6	=6	=6	=6
.	(<8qcc/	.	.
*ped	*	*	*
4GG	8b-L)	.	.
.	8aJ	.	.
4B- 4D	4g	.	.
*Xped	*	*	*
.	.	.	.
[4G [4C	4cc [4e-	.	sf
=7	=7	=7	=7
*	*^	*	*
4G] 4C]	8gL	4e-]	.	.
.	8aJ	.	.	.
4G\ 4GG\	4b-	4d	.	.
[4G [4C	4cc	[4e-	.	sf
=8	=8	=8	=8	=8
4G] 4C]	8gL	4e-]	.	.
.	8aJ	.	.	.
4G\ 4GG\	4b-	4d	.	.
!	!	!	!	!LO:DY:rj
4G 4C	4cc	4e-	.	f
=9	=9	=9	=9	=9
*ped	*	*	*	*
4FF#X	8ddL	4d	5	.
.	8ee-J	.	4	.
4d 4D	4dd/	4rcyy	5	.
4d 4D	4a/	4rcyy	.	.
*Xped	*	*	*	*
.	.	.	.	.
*	*v	*v	*	*
=10	=10	=10	=10
4GG	4.b-	.	.
4d 4B- 4G	.	.	.
.	(>8gL	.	<
4e- 4B- 4G	8dd	.	.
.	8ee-J	.	[[
=11	=11	=11	=11
*ped	*	*	*
4AA	8ffL)	.	.
.	8qaa/	.	.
.	8ggJ	.	.
4e- 4c 4F	4ff	.	.
4e- 4A 4F	4cc	.	.
*Xped	*	*	*
.	.	.	.
!!LO:LB:g=original
=12	=12	=12	=12
*ped	*	*	*
4BB-	4dd	.	.
4d 4B- 4F	4r	.	.
4d 4B- 4F	8ddL	.	.
*Xped	*	*	*
.	8ddJ	.	.
=13	=13	=13	=13
4r	(>8ddL	.	.
.	8qff/	.	.
.	8ee-J	.	.
*ped	*	*	*
4c 4F#X 4D	4dd	.	.
4c 4F# 4D	4a/)	.	.
*Xped	*	*	*
.	.	.	.
=14	=14	=14	=14
*ped	*	*	*
4GG	4b-	.	.
4d 4B- 4G	(>8gL	.	.
.	8bb-	.	.
*Xped	*	*	*
.	.	.	.
!	!	!	!LO:DY:rj
4e- 4G 4C	8aa	.	f
.	8ggJ)	.	.
=15	=15	=15	=15
*^	*	*	*
4rc	2.D	(>8ggL	.	>
.	.	8ff	.	.
4c 4G	.	8ee-	.	.
.	.	8qff/	.	.
.	.	8ee-	.	.
4c 4F#X	.	8dd	.	.
.	.	8ccJ)	.	]
*v	*v	*	*	*
=16	=16	=16	=16
*ped	*	*	*
4GG	(<8b-L	.	.
.	8aJ	.	.
4B- 4D	2g)	.	.
4B- 4D	.	.	.
*Xped	*	*	*
.	.	.	.
=17!:	=17!:	=17!:	=17!:
*>B	*>B	*>B	*>B
.	(<8qcc/	.	.
*ped	*	*	*
4FF	2.g)	.	sf
4e- 4B- 4F	.	.	.
4e- 4B- 4F	.	.	.
*Xped	*	*	*
.	.	.	.
!!LO:LB:g=original
=18	=18	=18	=18
*^	*	*	*
*	*^	*	*	*
*	*Xtuplet	*	*	*	*
!	!	!	!LO:TX:t=P:stem-side tuplet number:problem	!	!
4e-	(>12cL	4F\	(<12aL	.	>
.	12B-	.	12g	.	.
.	12AJ)	.	12fJ)	.	]
4d	4B-\	2ryy	4b-	.	.
4BB-	4ryy	.	4dd	.	.
*	*v	*v	*	*	*
*v	*v	*	*	*
=19	=19	=19	=19
.	(<8qcc/	.	.
*ped	*	*	*
4FF	2.g)	.	.
4e- 4B- 4F	.	.	.
4e- 4B- 4F	.	.	.
*Xped	*	*	*
.	.	.	.
=20	=20	=20	=20
*^	*	*	*
*	*^	*	*	*
!	!	!	!LO:TX:t=P:stem-side tuplet number:problem	!	!
4e-	(>12cL	4F\	(<12aL	.	>
.	12B-	.	12g	.	.
.	12AJ)	.	12fJ)	.	]
4d	4B-\	2ryy	4b-	.	.
4BB-	4ryy	.	8ddL	.	.
.	.	.	8ee-J	.	.
*clefG2	*	*	*	*	*
*	*v	*v	*	*	*
*v	*v	*	*	*
=21	=21	=21	=21
*	*^	*	*
*	*Xtuplet	*	*	*
4g 4d 4G	12ffL	4bn	.	pp
!	!LO:TX:i:t=e legatissimo.	!	!	!
.	12gg	.	.	.
.	12ffJ	.	.	.
4g 4c	4een	4b-X	.	.
4g 4c	8ccL	4b-	.	.
.	8ddJ	.	.	.
*clefF4	*	*	*	*
=22	=22	=22	=22	=22
4c 4F	12ee-XL	4an	.	.
.	12ff	.	.	.
.	12ee-J	.	.	.
4f 4B-	4dd	4a-X	.	.
4f 4B-	4b-	4a-	.	.
!!LO:LB:g=original
=23	=23	=23	=23	=23
4B- 4E-	12dd-XL	4g	.	.
.	12ee-	.	.	.
.	12dd-J	.	.	.
4e- 4A-X	4cc	4g-X	.	.
4e- 4A-	8a-XL	4g-	.	.
.	8b-J	.	.	.
=24	=24	=24	=24	=24
4A 4D-X	12cc-XL	4f	.	.
.	12dd-X	.	.	.
.	12cc-J	.	.	.
4d-X 4G-X	4b-	4f-X	.	.
4d- 4G-	4g-X	4f-	.	.
*	*v	*v	*	*
=25	=25	=25	=25
.	8qcc 8qen/	.	.
4C/	2.g	.	sf
4en 4B-	.	.	.
4e 4B-	.	.	.
=26	=26	=26	=26
*^	*	*	*
*	*^	*	*	*
4e-X	(>12cL	4F\	(<12aL	.	>
.	12B-	.	12g	.	.
.	12AJ)	.	12fJ)	.	]
4d	4B-\	2ryy	4b-	.	.
4BB-	4ryy	.	4dd	.	.
*	*v	*v	*	*	*
*v	*v	*	*	*
=27	=27	=27	=27
.	8qcc 8qen/	.	.
4C/	2.g	.	sf
4en 4B-	.	.	.
4e 4B-	.	.	.
!!LO:PB:g=original
=28	=28	=28	=28
*^	*	*	*
*	*^	*	*	*
*	*	*	*tuplet	*	*
!	!	!	!LO:TX:t=P:stem-side tuplet number:problem	!	!
4e-	(>12cL	4F\	(<12aL	.	>
.	12B-	.	12g	.	.
.	12AJ)	.	12fJ)	.	]
4d	4B-\	2ryy	4b-	.	.
4BB-	4ryy	.	8ddL	.	.
.	.	.	8ee-J	.	.
*clefG2	*	*	*	*	*
*	*v	*v	*	*	*
*v	*v	*	*	*
=29	=29	=29	=29
*	*^	*	*
!	!LO:TX:t=P:stem-side tuplet number:problem	!	!	!
4g 4d 4G	(>12ffL	4bn	.	p
!	!LO:TX:i:t=e legg.	!	!	!
.	12gg	.	.	.
.	12ffJ)	.	.	.
4g 4c	4een	4b-X	.	.
4g 4c	8ccL	4b-	.	.
.	8ddJ	.	.	.
*clefF4	*	*	*	*
=30	=30	=30	=30	=30
*	*Xtuplet	*	*	*
4c 4F	(>12ee-XL	4an	.	.
.	12ff	.	.	.
.	12ee-J)	.	.	.
4f 4B-	4dd	4a-X	.	.
4f 4B-	8b-L	4a-	.	.
.	8ccJ	.	.	.
=31	=31	=31	=31	=31
4en 4B- 4En	(>12dd-XL	4g	.	.
.	.	.	.	<
.	12ee-	.	.	.
.	12dd-J)	.	.	.
4e-X 4B- 4F	4cc	4g	.	.
4e- 4A 4F	8ddnL	4f	.	.
.	8ccJ	.	.	[[
*	*v	*v	*	*
=32	=32	=32	=32
*ped	*	*	*
4d 4B-	4b-	.	p
4BB-'	4bb-'	.	.
4BBB-'	4bbb-'	.	.
*Xped	*	*	*
.	.	.	.
!!LO:LB:g=original
=33:|!	=33:|!	=33:|!	=33:|!
*>C	*>C	*>C	*>C
!	!LO:TX:i:t=sotto voce.	!	!
2.rF	(<8dL	.	.
.	8e-J	.	.
.	4d	.	.
.	4a	.	.
=34	=34	=34	=34
2.rF	4g	.	.
.	4.f#X	.	.
.	8e-)	.	.
=35	=35	=35	=35
2.rF	(<8dL	.	.
.	8e-J	.	.
.	4d	.	.
.	4a	.	.
=36	=36	=36	=36
*	*tuplet	*	*
!	!LO:TX:t=P:stem-side tuplet number:problem	!	!
2.rF	(<12gL	.	.
.	12a	.	.
.	12gJ)	.	.
.	4f#X	.	.
.	4e-)	.	.
=37	=37	=37	=37
2.rF	(>8dL	.	.
.	8e-J	.	.
.	4d	.	.
!	!LO:TX:i:t=poco	!	!
.	.	.	.
.	4cc	.	.
=38	=38	=38	=38
*	*	*^	*
!	!LO:TX:t=cres. _:problem:dynamics with extention lines	!	!	!LO:HP:i:t=cres.:ext=ud
2.rF	8bn/L	.	.	<
.	8b-XJ	.	.	.
.	4a	.	.	.
.	8a-XL	.	.	.
.	8gJ	.	1	[
*	*	*v	*v	*
!!LO:LB:g=original
=39	=39	=39	=39
2.rF	8f#X/L	2	.
.	8cc#XJ	4	.
.	4.dd	5	.
.	8ee-	3	.
=40	=40	=40	=40
2.rF	8ddL	2	.
.	8ee-	.	.
.	8dd	.	.
.	8ee-	.	.
.	8dd	.	.
.	8ee-J)	.	.
=41||	=41||	=41||	=41||
*ped	*	*	*
4DD	8ddL	.	mf
.	8qff/	.	.
.	8ee-J	.	.
4d 4c 4F#X	4dd	.	.
4d 4c 4F#	4a/	.	.
*Xped	*	*	*
.	.	.	.
=42	=42	=42	=42
*ped	*	*	*
4GG	4.b-	.	.
4d 4B- 4G	.	.	.
*Xped	*	*	*
.	(>8gL	.	<
4e- 4B- 4G	8dd	.	.
.	8ee-J)	.	[[
=43	=43	=43	=43
*ped	*	*	*
4AA	8ffL	.	.
.	8qaa/	.	.
.	8ggJ	.	.
4e- 4c 4F	4ff	.	.
4e- 4A 4F	4cc	.	.
*Xped	*	*	*
.	.	.	.
=44	=44	=44	=44
*ped	*	*	*
4BB-	4dd	.	.
4d 4B- 4F	4r	.	.
4d 4B- 4F	8ddL	.	.
*Xped	*	*	*
.	8ddJ	.	.
!!LO:LB:g=original
=45	=45	=45	=45
4r	8ddL	.	.
.	8qff/	.	.
.	8ee-J	.	.
*ped	*	*	*
4c 4F#X 4D	4dd	.	.
4c 4F# 4D	4a/	.	.
*Xped	*	*	*
.	.	.	.
=46	=46	=46	=46
.	(<8qcc/	.	.
*ped	*	*	*
4GG	8b-L)	.	.
.	8aJ	.	.
4B- 4D	4g	.	.
*Xped	*	*	*
.	.	.	.
[>4G [<4C	4cc [4e-	.	sf
=47	=47	=47	=47
*	*^	*	*
4G] 4C]	8gL	4e-]	.	.
.	8aJ	.	.	.
4G\ 4GG\	4b-	4d	.	.
!	!	!	!	!LO:DY:rj
[>4G [<4C	4cc	[4e-	.	sf
=48	=48	=48	=48	=48
4G] 4C]	8gL	4e-]	.	.
.	8aJ	.	.	.
4G\ 4GG\	4b-	4d	.	.
4G 4C	4cc	4e-	.	sf
=49	=49	=49	=49	=49
*ped	*	*	*	*
4FF#X	8ddL	4d	5	.
.	8ee-J	.	4	.
4d 4D	4dd/	4rdyy	5	]
4d 4D	4a/	4rByy	.	.
*Xped	*	*	*	*
.	.	.	.	.
*	*v	*v	*	*
=50	=50	=50	=50
4GG	4.b-	.	.
4d 4B- 4G	.	.	.
.	(>8gL	.	<
4e- 4B- 4G	8dd	.	.
.	8ee-J)	.	[
!!LO:LB:g=original
=51	=51	=51	=51
*ped	*	*	*
4AA	8ffL	.	.
.	8qaa/	.	.
.	8ggJ	.	.
4e- 4c 4F	4ff	.	.
4e- 4A 4F	4cc	.	.
*Xped	*	*	*
.	.	.	.
=52	=52	=52	=52
*ped	*	*	*
4BB-	4dd	.	.
4d 4B- 4F	4r	.	.
4d 4B- 4F	8ddL	.	.
*Xped	*	*	*
.	8ddJ	.	.
=53	=53	=53	=53
4r	(>8ddL	.	.
.	8qff/	.	.
.	8ee-J	.	.
*ped	*	*	*
4c 4F#X 4D	4dd	.	.
4c 4F# 4D	4a)	.	.
*Xped	*	*	*
.	.	.	.
=54	=54	=54	=54
*ped	*	*	*
4GG	4b-	.	.
4d 4B- 4G	(>8gL	.	.
*Xped	*	*	*
.	8bb-	.	.
4e- 4G 4C	8aa	.	f
.	8ggJ)	.	.
=55	=55	=55	=55
*^	*	*	*
4rA	2.D	(>8ggL	.	>
.	.	8ff	.	.
4c 4G	.	8ee-	.	.
.	.	8qff/	.	.
.	.	8ee-	.	.
4c 4F#X	.	8dd	.	.
.	.	8ccJ)	.	]
=56	=56	=56	=56	=56
4rF	2.GG	(<8b-L	.	.
.	.	8aJ	.	.
2B- 2D	.	2g)	.	.
*v	*v	*	*	*
==	==	==	==
*-	*-	*-	*-
!!!system-decoration: s1{(s2,s3)}
!!!RDF**kern: N = linked
!!!RDF**kern: > = above
!!!RDF**kern: < = below
!!!RDF**dynam: > = "dim." fontstyle="italic"
!!!RDF**dynam: < = "cres." fontstyle="italic"
!!title: @{OTL}; @{OPS} @{ONM} publisher: @{PPR}
!!!RDF**kern: i=editorial accidental, bracket
!!!ENC: Jędrzej Mróz
!!!END: 2019-12-17
!!!EED: Emilia Ziętek
!!!EST: 2020-01-06
